X:1
T:Oboe Sonata a-moll, TWV 41:a3
T:Oboe Sonata a-moll, TWV 41:a3
T:Transcribed for Recorder in d-moll from " https://musescore.com/user/3291/scores/5368725 "
T: Georg Philipp Telemann (1681 — 1767)
T:Creative Commons Attribution Non-commercial 3.0
T:Creative Commons Attribution Non-commercial 3.0
T:Creative Commons Attribution Non-commercial 3.0
T:Creative Commons Attribution Non-commercial 3.0
C:Georg Philipp Telemann (1681 — 1767)
Z:Creative Commons Attribution Non-commercial 3.0
%%score [ 1 2 ] { ( 3 5 6 ) | 4 }
L:1/8
Q:3/8=45
M:12/8
K:F
V:1 treble nm="Alto Rec." snm="A."
V:2 bass nm="Fagotto" snm="Bsn."
V:3 treble nm="Harpsichord" snm="Hch."
V:5 treble 
V:6 treble 
V:4 bass 
V:1
"^1. Siciliana" a | d>ef f>ed d'3/2c'/4b/4a z2 d | b>ag ^c'3/2d'/4e'/4g g3/2f/4e/4f z2 d | %3
 =b>c'b f2 b b2 c' z2 _b | a>ba _e2 a (a2 b) z2 c' | d'>ef c'>ef B/c/B/A/B b2 a/b/4c'/4 | %6
 a>gf f>ge f3 z3 | ^f3- f3/2g/4a/4f f2 g z3 | ^g3- g3/2a/4=b/4g g2 a z2 b | %9
 c'>^ga d'>ga f2 e z2 g | a3/2g/4f/4e{d} c>d=B A3 z3 | z3 z z a d>ef f>ed | %12
 d'3/2c'/4b/4a z2 b f3/2g/4a/4f{e} d3/2e/4f/4e | ^c>de z z A _e3- e>cd | %14
 g3- g>^cd b>^ga z z/ =b/^c' | d'3/2c'/4b/4a{g} f>ge d2 a z2 a | z2 a z z ^f f2 g b3/2g/4f/4g | %17
 e2 f a3/2f/4e/4f d2 _e g3/2e/4d/4e | ^c2 a z2 b a>gf g>fe | d6 z2 z3 |] %20
[M:3/4][Q:1/4=104]"^2. Spirituoso" d/e/f/g/ .a.d .a.d' | ^c'd' z e/f/ .g.f | %22
 ed/^c/ d/f/e/d/ e/g/f/e/ | f/e/d/f/ .e.A .e.a | d/e/f/g/ .a.d .a.d' | ^c'd' z a/g/ .a.=b | %26
 c'/g/e/g/ c'g/f/ .g.a | b/f/d/f/ bc'/b/ c'/a/b/c'/ | d'/c'/b/.c'/ c'/a/g/.a/ g/f/e/.f/ | %29
 e/d/c z .c' Tf3/2d/4e/4 | f/c/ f2 .c' Tg3/2e/4f/4 | g/c/ g2 .c' g/a/b/g/ | %32
 a/b/a/g/ a/f/e/f/ g/a/b/g/ | a/b/a/g/ a/f/e/f/ =b/c'/d'/b/ | .c' b2 a/b/ c'/b/a/g/ | %35
 a/g/f/e/ .f.g .c.e | f/g/f/e/ f/d/^c/d/ g/f/e/d/ | e/f/e/d/ e/c/d/e/ f/g/a/b/ | c'f/e/ .f.g .c.e | %39
 f4 z2 :: f/g/a/b/ .c'c'/a/ .bb/g/ | ^fg z .d' c'/b/a/g/ | a/b/c'/d'/ _e'/c'/.d' c'/a/.b | %43
 ad z .d' c'/=b/c'/d'/ | =b/g/^f/g/ d'/b/a/b/ =f/e/f/g/ | e/c/=B/c/ g/e/d/e/ b/a/b/c'/ | %46
 a/f/e/f/ g/e/d/e/ f/d/^c/d/ | eA z .a .a.a | ab/a/ .d'.a .a.a | ab/a/ .e'.g .g.g | %50
 gf/e/ .a.d ed/^c/ | d2- d/f/e/d/ e/g/f/e/ | f/g/f/e/ f/d/^c/d/ e/g/f/e/ | %53
 f/g/f/e/ f/d/^c/d/ g/b/a/g/ | ad'/^c'/ .d'.a Mfe/d/ | d4 z2 :| z/8 | %57
[M:4/4][Q:1/4=45]"^3. Andante" ff- (3f/c'/b/(3a/g/f/ .gc- (3c/d/e/(3f/g/a/ | %58
 bb- (3b/c'/d'/(3c'/a/b/ ba z a/f/ | gc' z f/d/ ec' z d/=B/ | %60
 ca- (3a/g/f/(3e/d/c/ (6:4:6c'/=b/a/g/f/e/ (6:4:6d/c/=B/c/B/A/ | Gf z e/d/ e/c'/=b/c'/ d>c | %62
 c2 z2 gg- (3g/^f/g/(3b/g/d/ | gg- (3g/^f/g/(3b/g/d/ c'c'- (3c'/=b/c'/(3_e'/d'/c'/ | %64
 (3c'/b/a/(3b/a/g/ z d/>e/ ff- (3f/e/f/(3a/f/c/ | %65
 ff- (6:4:6f/e/f/a/f/c/ (6:4:6g/b/a/b/a/g/ (6:4:6d'/c'/b/a/g/f/ | e/d/c z2 ff- (3f/c'/b/(3a/g/f/ | %67
 gc- (3c/d/e/(3f/g/a/ bb- (3b/c'/d'/(3c'/a/b/ | ba z d'/b/ bc' z/ a/b/g/ | %69
{g} a2 z/ f/g/e/{e} f>g g>f | f_e- (3e/d/c/(3g/f/e/ (3d/c/B/(3f/d/B/ z/ f/e/d/ | %71
 gf- (3f/e/d/(3a/g/f/ (3e/d/c/(3g/e/c/ z g/>a/ | bb- (3b/a/b/(3d'/c'/b/ aa- (3a/g/a/(3c'/b/a/ | %73
 (3g/f/g/(3b/a/g/ (3f/e/f/(3a/g/f/ cc- (3c/d/e/(3f/g/a/ | (3b/a/g/ a/>f/ e>f f2 z2 |] %75
[M:2/4][Q:1/4=104]"^4. Vivace" .a | f/g/.a .a.d | ^c/d/.e .e.A | d/e/ f3 | e/f/ g3 | .f.e .d.^c | %81
 d/e/f/g/ e/f/g/a/ | d/e/f/g/ .e.a | f/g/.a .a.d | ^c/d/.e .e.A | d/e/ f3 | e/f/ g3 | .f.e .d.^c | %88
 d>e Me>d | !fermata!d-!fine! | d z f/e/ | d/e/c/d/ =B/d/g/f/ | e/f/d/e/ c/d/e/f/ | .g a2 g/f/ | %94
 .gc'/=b/ .c'.c | .g a2 g/f/ | g/f/e/f/ .g.c' | a/b/.c' .c'.f | e/f/.g .g.c | f>g Mg>f | f2 z .a | %101
 .a.^f .f.d | d/e/4^f/4g/4a/4b/4c'/4 d'2 | .c'.a a/b/c'/a/ | .b.g g/a/b/g/ | .c'.a a/b/c'/a/ | %106
 .b.g .g.d | g>a Ma>g | g/a/ b3 | a/b/ c'3 | .b.a .g.^f | g>a Ma>g | g2 z .a | b/c'/a/b/ g/a/f/g/ | %114
 e/f/g/a/ b/g/.c' | a/b/g/a/ f/g/e/f/ | d/e/f/g/ a/f/.b | g/a/f/g/ e/f/d/e/ | .^c2 c/d/e/c/ | %119
 .d2 d/e/f/d/ | .e2 e/f/g/e/ | f/g/f/d/ g/a/g/e/ | f/g/f/d/ g/a/g/e/ | .a.d .g.f | e3!D.C.! |] %125
V:2
 z | D,2 D, D,2 D, D,3 F,>E,D, | G,2 G, A,2 A, D,3 D>EF | G,2 G, G,2 F, _E,2 E, =E,2 E, | %4
 F,2 F, F,2 _E, D,2 D, D,2 A, | B,3 A,3 G,3 E,>D,C, | F,2 D C2 C, F,3 z2 F, | %7
 C>DC D,2 A, .B,3 B,>A,G, | D>ED E,2 =B, C3 C2 _A, | A,3 =B,3 _A,3 D>CB, | C2 C E2 E, A,3 z2 A, | %11
 D,>E,F, F,>E,D, B,2 B, B,2 B, | F,3 F,2 G, D,2 A, B,2 G, | A,3 A,>G,^F, G,2 G, G,2 G, | %14
 B,2 B, B,2 B, ^C,3 z2 G, | F,2 F, A,2 A,, D,3 ^C,3 | D,3 C2 C B,2 B, G,2 B, | %17
 B,2 A, F,2 A, A,2 G, G,2 G, | G,3 z2 E, F,>E,D, A,2 A,, | D,6 z2 z3 |][M:3/4] D,2 z D, F,D, | %21
 A,D,/E,/ F,A, ^C,D, | A,2 F,2 ^C,2 | D,2 A,A,, A,G, | F,2 z D, F,D, | A,D,/E,/ F,D, DG | %26
 EC z C, CF | DB, z A, F,A, | B,2 B,,2 =B,2 | C2 C,B, B,B, | A,A, A,A, A,A, | E,E, E,E, E,E, | %32
 F,2 F,2 E,2 | F,2 F,2 F2 | E/F/E/D/ EF A,C | F,G, A,B, CB, | A,2 D2 =B,2 | A,2 z B, A,G, | %38
 A,2 DB, CC, | F,4 z2 :: F,2 z ^F GG, | DB,/A,/ B,G, ^F,G, | C2 z B, A,G, | D,2 DD, E,^F, | %44
 G,2 z G, A,=B, | C2 z C DE | F2 E2 D2 | A,2 A,G, F,E, | F,2 z F, E,D, | ^C,2 z E/D/ ^C=B, | %50
 A,G, F,B, G,A, | F,E, D,2 ^C,2 | D,2 D2 ^C2 | D2 D,2 E,2 | F,E, F,D, A,A,, | D,4 z2 :| z/8 | %57
[M:4/4] F,F, F,F, E,E, E,E, | D,D, E,E, F,F, FF | EE DD CC =B,B, | A,A, A,A, E,E, F,^F, | %61
 G,A, =B,G, CF, G,G,, | C,2 CD _EE B,B, | _EE B,B, A,A, ^F,F, | G,2 B,G, DD A,A, | %65
 DD A,A, B,B, B,=B, | C2 CB, A,A, F,F, | E,E, E,E, D,D, E,E, | F,F, B,B, A,A, G,G, | %69
 F,F, B,B, A,F, CC, | F,F, F,F, B,2 B,B, | G,G, G,G, C2 C,C | DD DD CC CC | B,B, A,A, E,E, E,D, | %74
 C,F, CC, F,2 z2 |][M:2/4] z | z4 | z2 z A | F/G/A AD | ^C/D/E EA, | DE FE | FD AA, | FD AA, | %83
 D2 z2 | A,2 z A, | F,/G,/A, A,D, | ^C,/D,/E, E,A,, | D,E, F,E, | F,D, A,A,, | !fermata!D, | %90
 F/E/D C | =B,A, G,B, | C2 z C | E,2 F,2 | C,2 z C | E,2 F,2 | C,2 z E | F2 z2 | C2 z B, | %99
 A,F, CC, | F,2 FD | C2 z2 | B,2 z B, | A,2 D2 | G,2 B,G, | A,2 D2 | G,2 z B, | _E,C, D,D | %108
 B,/C/D DG, | ^F,/G,/A, A,D, | G,A, B,A, | B,G, DD, | G,2 B,^F, | G,2 z2 | C2 z2 | F,2 z2 | %116
 B,2 z2 | E,2 z2 | A,A, A,A, | z A, A,A, | A,A, A,A, | D2 ^C2 | D2 E2 | F2 ED | A,A,, A, |] %125
V:3
 z | [FAd]2 [FAd] [FAd]2 [FAd] [FAd]3 d>e[df] | %2
 [Bdg]2 [GBd] [EA^c]2 [Gce] [GAd]2 [FAd] [FAd]>G[Ad] | %3
 [G=Bd]2 [GBd] [GBd]2 [GBg] [Gdg]2 [Gcg] [_Bcg]2 [Bcg] | %4
 [Acf]2 [Acf] [Acf]2 [Acf] [Acf]2 [Bf] [FBf]2 [Fcf] | [FBd]3 [Fcf]3 [GBd]3 B/c/B/A/[EGB] | %6
 [FAc]2 [FB] [FAc]2 [EGc] [FAc]3 z2 [cfa] | [d^fa]2 [dfa] [dfa]2 [cfa] [dfa]2 [dg] d'>c'[dgb] | %8
 [e^g=b]2 [egb] [egb]2 [dgb] [egb]2 [ea] [Aea]2 [=Be] | [Ace]3 [F=Bd]3 [Bd]3 [^GBe]>[Gce][Gde] | %10
 [Ae]2 [Aea] [cea]2 [=Be_a] [ce=a]3 z2 [^cea] | f>g[Ada] a>g[Adf] [Bdf]2 [Bdf] [Bdf]2 [Bdf] | %12
 [Ada]3 [Ada]2 [Bdg] [Adf]2 [A^cf] [Fd]2 [GBe] | [EA^c]3 [Ace]2 [Ad] [B_e]2 [Be] [Be]2 [Bd] | %14
 [Gd]2 [Gd] [Gd]2 [Gdg] [eg]3 z2 [^cea] | [da]2 [da] [dfa]2 [^cea] [dfa]3 [Aea]3 | %16
 [Adf]3 [d^fa]2 [dfa] [dfa]2 [dg] [Bdg]2 [Gdg] | %17
 [ceg]2 [cf] [Acf]2 [cf] [Bdf]2 [B_eg] [Beg]2 [Beg] | [A^ce]3 z2 [Gcg] [Adf]>g[Ada] [Ace]2 [Ace] | %19
 [FAd]6 z2 z3 |][M:3/4] [dfa]2 z [FAd] [Ad][FAd] | ef/g/ ae [Ae][FAd] | [A^ce]2 [Ad]2 [EAe]2 | %23
 [FAd]2 [EA^c]4 | [DAd]2 z [FAd] [Ad][FAd] | [A^ce]f/g/ a[dfa] [dfa][=Bdg] | %26
 [ceg]2 z [ceg] [ceg][Acf] | [Bdf]2 z [cf] [Acf][Fcf] | [FBd]2 [Bdf]2 [Gdg]2 | [ceg]2 [Gce]4 | %30
 [Acf]6 | [Gcg]6 | [Acf]4 [Gcg]2 | [Acf]4 [G=Bd]2 | [cg]4 x2 | [Acf]4 [Gce]2 | [Af]4 [Gg]2 | %37
 [Gce]2 z [Gce] [Acf][Beg] | [cf]2 [Adf][Gg] [Gce]2 | [Acf]4 z2 :: [cfa]2 z [cda] [Bdg]2 | %41
 [^fa]g d'b [ac'][gb] | [_ea]2 z [Gdg] [Ac^f][Bdg] | [d^fa]4 [gc'][da] | %44
 [=Bdg]2 z [dg=b] [cfa][dfg] | [ceg]2 z [ceg] [fb][cg] | [Acf]2 [G^cg]2 [Adf]2 | %47
 [A^ce]2 [EAc]2 [FAd][Gce] | [Ad]2 z [Ad] [G^ce][Adf] | [Ae]2 z [^ceg] [eg][dg] | %50
 [^cea]2 [Ada][Bdf] [Be][Ace] | [df]4 [eg]2 | [df]4 [eg]2 | [df]2- [df]2 [G^ce]2 | %54
 [Ad]4 [FAd][EA^c] | [FAd]4 z2 :| z/8 |[M:4/4] [Acf]2 [Acf]2 [eg]2 [Gc]2 | %58
 [Bdf]2 [Bcg]2 [cf]A [cfa]2 | [cg]2 [df=b]2 [egc']2 [dg]2 | [cea]4 [cg]2 fa | %61
 [=Bdg][cf-] [Gdf]e/d/ [Gce][Acf] [GBd]2 | e3 f [G-cg-]2 [Gdg]2 | %63
 [B-_eg-]2 [Bdg]2 [c-^fa-]2 [cda]2 | [dg]4 [A-df-]2 [Acf]2 | [Adf]2 [Acf]2 [Gdg]3 [Adf] | %66
 [Gce]4 [Acf]4 | [Gcg]4 [df]2 [cg]2 | f4 [cf]2 [Beg]2 | [cfa]2 [dg]2 [cf]A [Gce]2 | %70
 [Acf]3 [Ac_e] [FBd]4 | [G=Bd]2 [GBf]2 [Gce]4 | [FBf]4 [FAf]4 | [Gce]2 [Acf]2 [Gcg]2 [Gc][FBd] | %74
 [GBe][Acf] [Gce]2 [Acf]2 z2 |][M:2/4] z | z4 | z2 z [^cea] | [Ada]2 [Adf]2 | e4 | %80
 [Fd][G^c] [Ad][Gcg] | [df]2 [^ce]2 | [Ad]2 [^ce]2 | [FAd]2 z2 | [A^ce]2 z [cea] | [Ada]2 [Adf]2 | %86
 e4 | [Fd][G^c] [Ad][Gcg] | [df]2 [^ce]2 | !fermata![df] | d [Ad]2 | d2 [dg]2 | [Gce]2 z [ceg] | %93
 [Gcg]2 [Acf]2 | [Gce]2 z [ceg] | [Gcg]2 [Acf]2 | [Gce]2 z [cg] | [Acf]2 z2 | [ceg]2 z [ceg] | %99
 f2 [ce]2 | [Acf]2 [Aa]2 | [d^fa]2 z2 | [dg]2 z [Gdg] | [ceg]2 [Ad^f]2 | [Bdg]2 dB | %105
 [Gce]2 [^FAd]2 | [GBd]2 z [Gd] | [G_e]2 [^FAd]2 | [Gd]2 [Bdg]2 | [Ada]2 [c^fa]2 | %110
 [Bdg][c^f] [dg][cfa] | [Bdg]2 [Ad^f]2 | [Bdg]2 ga | [Bdg]2 z2 | [ceg]2 z2 | [Acf]2 z2 | %116
 [Bdf]2 z2 | [Bdg]2 z2 | [A^ce]4 | z [Adf] [Adf]2 | z [^cea] [cea]2 | [df]2 [Aeg]2 | %122
 [Adf]2 [G^ce]2 | [Ad]2 [G^ce][Adf] | z2 z |] %125
V:4
 z | D,2 D, D,2 D, D,3 F,>E,D, | G,2 G, A,2 A, D,3 D>EF | G,2 G, G,2 F, _E,2 E, =E,2 E, | %4
 F,2 F, F,2 _E, D,2 D, D,2 A, | B,3 A,3 G,3 E,>D,C, | F,2 D C2 C, F,3 z2 F, | %7
 C>DC D,2 A, .B,3 B,>A,G, | D>ED E,2 =B, C3 C2 _A, | A,3 =B,3 _A,3 D>CB, | C2 C E2 E, A,3 z2 A, | %11
 D,>E,F, F,>E,D, B,2 B, B,2 B, | F,3 F,2 G, D,2 A, B,2 G, | A,3 A,>G,^F, G,2 G, G,2 G, | %14
 B,2 B, B,2 B, ^C,3 z2 G, | F,2 F, A,2 A,, D,3 ^C,3 | D,3 C2 C B,2 B, G,2 B, | %17
 B,2 A, F,2 A, A,2 G, G,2 G, | G,3 z2 E, F,>E,D, A,2 A,, | D,6 z2 z3 |][M:3/4] D,2 z D, F,D, | %21
 A,D,/E,/ F,A, ^C,D, | A,2 F,2 ^C,2 | D,2 A,A,, A,G, | F,2 z D, F,D, | A,D,/E,/ F,D, DG | %26
 EC z C, CF | DB, z A, F,A, | B,2 B,,2 =B,2 | C2 C,B, B,B, | A,A, A,A, A,A, | E,E, E,E, E,E, | %32
 F,2 F,2 E,2 | F,2 F,2 F2 | E/F/E/D/ EF A,C | F,G, A,B, CB, | A,2 D2 =B,2 | A,2 z B, A,G, | %38
 A,2 DB, CC, | F,4 z2 :: F,2 z ^F GG, | DB,/A,/ B,G, ^F,G, | C2 z B, A,G, | D,2 DD, E,^F, | %44
 G,2 z G, A,=B, | C2 z C DE | F2 E2 D2 | A,2 A,G, F,E, | F,2 z F, E,D, | ^C,2 z E/D/ ^C=B, | %50
 A,G, F,B, G,A, | F,E, D,2 ^C,2 | D,2 D2 ^C2 | D2 D,2 E,2 | F,E, F,D, A,A,, | D,4 z2 :| z/8 | %57
[M:4/4] F,F, F,F, E,E, E,E, | D,D, E,E, F,F, FF | EE DD CC =B,B, | A,A, A,A, E,E, F,^F, | %61
 G,A, =B,G, CF, G,G,, | C,2 CD _EE B,B, | _EE B,B, A,A, ^F,F, | G,2 B,G, DD A,A, | %65
 DD A,A, B,B, B,=B, | C2 CB, A,A, F,F, | E,E, E,E, D,D, E,E, | F,F, B,B, A,A, G,G, | %69
 F,F, B,B, A,F, CC, | F,F, F,F, B,2 B,B, | G,G, G,G, C2 C,C | DD DD CC CC | B,B, A,A, E,E, E,D, | %74
 C,F, CC, F,2 z2 |][M:2/4] z | z4 | z2 z A | F/G/A AD | ^C/D/E EA, | DE FE | FD AA, | FD AA, | %83
 D2 z2 | A,2 z A, | F,/G,/A, A,D, | ^C,/D,/E, E,A,, | D,E, F,E, | F,D, A,A,, | !fermata!D, | %90
 F/E/D C | =B,A, G,B, | C2 z C | E,2 F,2 | C,2 z C | E,2 F,2 | C,2 z E | F2 z2 | C2 z B, | %99
 A,F, CC, | F,2 FD | C2 z2 | B,2 z B, | A,2 D2 | G,2 B,G, | A,2 D2 | G,2 z B, | _E,C, D,D | %108
 B,/C/D DG, | ^F,/G,/A, A,D, | G,A, B,A, | B,G, DD, | G,2 B,^F, | G,2 z2 | C2 z2 | F,2 z2 | %116
 B,2 z2 | E,2 z2 | A,A, A,A, | z A, A,A, | A,A, A,A, | D2 ^C2 | D2 E2 | F2 ED | A,A,, A, |] %125
V:5
 x | x9 A2 A | x12 | x12 | x12 | x12 | x12 | x9 .[dg]3 | x12 | x6 F2 E x3 | x12 | [Ad]3 [Ad]3 x6 | %12
 x12 | x12 | x6 B2 A x3 | x12 | x12 | x12 | x12 | x11 |][M:3/4] x6 | [A^c][Ad]- [Ad][Ac] x2 | x6 | %23
 x6 | x6 | x [Ad] [Ad] x3 | x6 | x6 | x6 | x6 | x6 | x6 | x6 | x6 | G2 B[Acf]- [Acf][Gce] | x6 | %36
 x6 | x6 | x6 | x6 :: x6 | d2 [dg]2 d2 | x6 | x4 c2 | x6 | x4 B2 | x6 | x6 | x6 | x6 | x6 | A6 | %52
 A6 | A2- A4 | x6 | x6 :| x/4 |[M:4/4] x8 | x8 | x8 | x6 [Ad]2 | x3 =B x4 | [Gc]4 x4 | x8 | %64
 c B3 x4 | x8 | x8 | x4 B4 | [Bc-][Ac] [Bd]2 x4 | x8 | x8 | x8 | x8 | x8 | x8 |][M:2/4] x | x4 | %77
 x4 | x4 | x ^c3 | x4 | A4 | x F A2 | x4 | x4 | x4 | A[A^c] [Gc]2 | x4 | A4 | A | A/G/ F2 | %91
 G2 =BG | x4 | x4 | x4 | x4 | x4 | x4 | x4 | cA G2 | x2 cd | x4 | x4 | x4 | x2 [Gg]2 | x4 | x4 | %107
 Bc x2 | x4 | x4 | x4 | x4 | x2 d2 | x4 | x4 | x4 | x4 | x4 | x4 | x4 | x4 | x4 | x4 | x4 | x3 |] %125
V:6
 x | x12 | x12 | x12 | x12 | x12 | x12 | x12 | x12 | x12 | x12 | x12 | x12 | x12 | x12 | x12 | %16
 x12 | x12 | x12 | x11 |][M:3/4] x6 | x6 | x6 | x6 | x6 | x6 | x6 | x6 | x6 | x6 | x6 | x6 | x6 | %33
 x6 | x6 | x6 | x6 | x6 | x6 | x6 :: x6 | x6 | x6 | x6 | x6 | x6 | x6 | x6 | x6 | x6 | x6 | x6 | %52
 x6 | x6 | x6 | x6 :| x/4 |[M:4/4] x8 | x8 | x8 | x8 | x8 | x8 | x8 | x8 | x8 | x8 | x8 | x8 | x8 | %70
 x8 | x8 | x8 | x8 | x8 |][M:2/4] x | x4 | x4 | x4 | AA G2 | x4 | x4 | x4 | x4 | x4 | x4 | x4 | %87
 x4 | x4 | x | x3 | x4 | x4 | x4 | x4 | x4 | x4 | x4 | x4 | x4 | x4 | x4 | x4 | x4 | x4 | x4 | x4 | %107
 x4 | x4 | x4 | x4 | x4 | x4 | x4 | x4 | x4 | x4 | x4 | x4 | x4 | x4 | x4 | x4 | x4 | x3 |] %125

